X:069 
T:Great Eastern Polka, The
F:file ID: cre.5/069great_e
B:CRE5.108 (Polca 'Great Eastern')
N:1:I have reworked this into an A-B-A format. This
tune may have formed part of a quadrille at one time.
N:2:Named for the ship that laid the first transatlantic 
cable in 1866.
L:1/8
M:C|
Q:160
R:polka
K:G
Bc|dBGg f2e2|ABcA B2G2|EFGE FGAF|GABc d2^c2|
dBGg f2e2|ABcA B2G2|EFGE FGAF|G2B2G2:|
K:D
"key change to D"
|:FG|A^GAd c2B2|cBAg f2 e2|fefd B2e2|cBcA f2d2|
A^GAd c2B2|cBAg f2 e2|fefd B2e2|cBcA d2 :|
P:repeat 1st part (key G)
K:G
Bc|dBGg f2e2|ABcA B2G2|EFGE FGAF|GABc d2^c2|
dBGg f2e2|ABcA B2G2|EFGE FGAF|G2B2HG4|]



%%%

